X:1
T: Off the Rails
C:Muriel A Johnstone
R:Jig
%Q:180
K:C
M:6/8
L:1/16
G,2|C3DC2 c4c2|B2c2d2 G6|A2B2c2 F4A2|G4c2 E2D2C2|C3DC2 c4c2|B2c2d2 G2A2B2|A2f2e2 d2c2B2|c6c4G,2|
C3DC2 c4c2|B2c2d2 G6|A2B2c2 F4A2|G4c2 E2D2C2|C3DC2 c4c2|B2c2d2 G2A2B2|A2f2e2 d2c2B2|c6c4e2|
g4g2 -g2e2c2|f4f2 -f2d2B2|e4e2 -e2c2A2|d4c2 B2A2G2|g4g2 -g2e2c2|f4f2 -f2d2B2|e2d2c2 G2c2B2|c4C2C4e2|
g4g2 -g2e2c2|f4f2 -f2d2B2|e4e2 -e2c2A2|d3ec2 B2A2G2|C3DC2 c4c2|B2c2d2 G2A2B2|A2f2e2 d2c2B2|c6c4||
